X:11368
T:Mug of Brown Ale
M:6/8
L:1/8
K:A Dorian
f|eAA fAA|gfg age|dBA G2A|BAB dBd|!
eAA fAA|gfg age|dBd gdB|BAG A2:|!
d|efg a2b|a2b age|efg a2b|agf g3|!
efg a2b|a2b age|dBd gdB|BAG A2:|!
